X:1
T: The Drogheda Weavers
C:
R:Jig
Q:180
K:D
M:6/8
L:1/16
A2F2D2 D2F2D2|A2F2D2 G4E2|A2F2D2 D2F2G2|A2F2D2 E4d2|A2F2D2 D2F2D2|A2F2D2 G4E2|D2F2A2 B4d2|A2F2D2 E4D2|
A2F2D2 D2F2D2|A2F2D2 G4E2|A2F2D2 D2F2G2|A2F2D2 E4d2|A2F2D2 D2F2D2|A2F2D2 G4E2|D2F2A2 B4d2|A2F2D2 E4D2|
DEFGAB c6|B6 A4D2|D2F2A2 d4B2|A2F2D2 E4D2|DEFGAB c6|B6 A4B2|A2B2c2 d4B2|A2F2D2 E4d2|
DEFGAB c6|B6 A4D2|D2F2A2 d4B2|A2F2D2 E4D2|DEFGAB c6|B6 A4B2|A2B2c2 d4B2|A2F2D2 E4d2||
